austria/municipalities/20435.svg

<svg xmlns="http://www.w3.org/2000/svg" width="850" height="850" style="shape-rendering:geometricPrecision;text-rendering:geometricPrecision;image-rendering:optimizeQuality;fill-rule:evenodd;clip-rule:evenodd"><path style="opacity:1" fill="#c8c7c7" d="M837.5 17.5v-6h-826v4c-.951-1.419-1.284-3.085-1-5h828c.302 2.56-.032 4.893-1 7z"/><path style="opacity:1" fill="#262224" d="M837.5 17.5a96105.793 96105.793 0 0 1-32.5 467C790.672 622.693 723.505 725.86 603.5 794c-109.165 54.871-220.165 58.871-333 12-77.315-34.482-136.648-88.649-178-162.5.215-1.679-.452-2.679-2-3-23.47-43.863-38.303-90.529-44.5-140a46084.756 46084.756 0 0 1-34.5-485v-4h826v6z"/><path style="opacity:1" fill="#124262" d="M818.5 34.5v-5h-788v3c-.934-1.068-1.268-2.401-1-4h790c.295 2.235-.039 4.235-1 6z"/><path style="opacity:1" fill="#0065a5" d="M818.5 34.5c-9.59 135.987-19.09 271.987-28.5 408-1.097 66.72-16.763 129.72-47 189C683.58 734.854 594.747 796.688 476.5 817 348.443 831.658 240.61 792.158 153 698.5c-51.531-60.096-81.531-129.763-90-209a184152.01 184152.01 0 0 1-32.5-457v-3h788v5z"/><path style="opacity:1" fill="#252223" d="M370.5 104.5c19.798-1.51 37.465 3.823 53 16 17.242-14.154 36.909-18.987 59-14.5a1060.938 1060.938 0 0 1 44 11l17 1c1.833.5 3 1.667 3.5 3.5l1 16a590.635 590.635 0 0 0 20.5 10.5 11.532 11.532 0 0 1 3.5 4.5c.993 71.415.66 142.748-1 214-1.594 1.797-3.594 2.797-6 3a2019.997 2019.997 0 0 0-113.5-16c-2.11 8.274-7.443 13.441-16 15.5-11.045 2.665-21.712 1.665-32-3-4.848-2.873-7.848-7.04-9-12.5a1234.468 1234.468 0 0 0-112.5 16c-3.274.199-5.607-1.134-7-4-.667-71.333-.667-142.667 0-214a6.978 6.978 0 0 1 2.5-3.5 273.635 273.635 0 0 1 20-9.5c.83-5.638 1.33-11.304 1.5-17l3.5-3.5 17-1a567.779 567.779 0 0 1 51-12.5z"/><path style="opacity:1" fill="#fdfdfd" d="M372.5 111.5c14.827-.888 28.494 2.612 41 10.5l6.5 6.5c.5 67.333.667 134.666.5 202a189.826 189.826 0 0 0-53-5.5 261.023 261.023 0 0 0-50 12 72.367 72.367 0 0 1-12 .5v-213a112.97 112.97 0 0 0 15-.5 734.277 734.277 0 0 1 52-12.5zM458.5 111.5a255.141 255.141 0 0 1 66 12.5c5.323.499 10.656.666 16 .5v213a72.367 72.367 0 0 1-12-.5 1078.027 1078.027 0 0 1-31-9c-24.13-4.266-48.13-3.433-72 2.5-.167-67.334 0-134.667.5-202 9.024-9.261 19.858-14.928 32.5-17z"/><path style="opacity:1" fill="#fefefe" d="m297.5 146.5 2 191c-5.237 6.743-11.071 13.077-17.5 19a6868.562 6868.562 0 0 1 .5-203 209.476 209.476 0 0 0 15-7z"/><path style="opacity:1" fill="#908e8f" d="M297.5 146.5c.06-.543.393-.876 1-1 1 63.997 1.333 127.997 1 192l-2-191z"/><path style="opacity:1" fill="#fefefe" d="M564.5 154.5a10105.8 10105.8 0 0 1-1 201 348.625 348.625 0 0 0-15.5-16c-.5-64.332-.667-128.666-.5-193a66.254 66.254 0 0 1 17 8z"/><path style="opacity:1" fill="#c7c6c6" d="M564.5 154.5a5106.097 5106.097 0 0 1 0 202c-.607-.124-.94-.457-1-1a10105.8 10105.8 0 0 0 1-201z"/><path style="opacity:1" fill="#252224" d="M752.5 315.5c2.292-.256 4.459.077 6.5 1a16.242 16.242 0 0 1 0 8c-11.064 38.668-31.564 71.168-61.5 97.5l-10 .5a541.53 541.53 0 0 1-44-3.5 220.283 220.283 0 0 0 41 17c2.849 2.559 3.683 5.726 2.5 9.5A1820.725 1820.725 0 0 1 553.5 561a584.268 584.268 0 0 0 36 14 7053.788 7053.788 0 0 0 64 20.5 15.645 15.645 0 0 1 2.5 4 5422.88 5422.88 0 0 0 15 77c1.833 8.833-1.667 12.333-10.5 10.5a15536.815 15536.815 0 0 0-130-53 2375.487 2375.487 0 0 1-50.5-22.5 172.798 172.798 0 0 1-36.5 19 550.554 550.554 0 0 1-70-32l-1 .5a221.966 221.966 0 0 0 46 33c10.815 10.262 8.815 14.596-6 13-33.7-6.289-65.7-17.456-96-33.5-34.827 30.922-74.827 52.755-120 65.5a16.242 16.242 0 0 1-8 0 3412.916 3412.916 0 0 1 88-68l87-63c-56.06-35.643-107.56-77.143-154.5-124.5a2149.235 2149.235 0 0 1-27.5 34.5c-12.499 8.945-21.999 6.445-28.5-7.5-1.405-3.572-1.738-7.239-1-11a37.885 37.885 0 0 1 6-10 938.24 938.24 0 0 1 22.5-18.5 2187.73 2187.73 0 0 0 4-5c-14.946-11.153-31.279-13.82-49-8-11.918 3.05-23.251 1.717-34-4-7.572-7.281-10.072-16.114-7.5-26.5 4.966-13.296 14.466-21.13 28.5-23.5 31.597-.246 60.431 8.588 86.5 26.5a184.316 184.316 0 0 0 24-33c4.795-6.557 11.128-10.557 19-12 14.663 3.991 19.996 13.324 16 28-5.581 8.916-12.581 16.583-21 23a93.285 93.285 0 0 1-11 12c-.667.667-.667 1.333 0 2 57.183 46.705 119.35 86.038 186.5 118 105.404-70.95 215.404-134.617 330-191z"/><path style="opacity:1" fill="#fdfdfd" d="M748.5 325.5c.876-.131 1.543.202 2 1-10.894 33.806-28.894 63.139-54 88a216.023 216.023 0 0 1-39-1.5 496.445 496.445 0 0 1-42-7c11.935 12.31 25.935 21.643 42 28a883.929 883.929 0 0 0 22 8.5 1966.864 1966.864 0 0 1-133 114.5c-1.667.667-3.333.667-5 0a1794.267 1794.267 0 0 1-112-47.5c101.985-68.182 208.318-129.515 319-184z"/><path style="opacity:1" fill="#fbfbfb" d="M248.5 331.5c13.548 1.763 17.048 8.763 10.5 21a839.958 839.958 0 0 0-34 35c1.249 12.073-4.084 18.74-16 20l-26 36a70.588 70.588 0 0 1-10.5 9.5c-11.616-.354-15.449-6.187-11.5-17.5a904.012 904.012 0 0 0 30-27c2.182-3.51 4.349-7.01 6.5-10.5-2.495-6.945-.828-12.611 5-17a45.217 45.217 0 0 0 9-3.5 246.977 246.977 0 0 0 29.5-40 125.763 125.763 0 0 1 7.5-6z"/><path style="opacity:1" fill="#fafafa" d="M358.5 332.5c12.338-.167 24.671 0 37 .5 6.769.82 13.435 2.154 20 4l-12 8a3036.75 3036.75 0 0 0-115 15l15-15 15-1a881.763 881.763 0 0 1 40-11.5z"/><path style="opacity:1" fill="#f9f9f9" d="M451.5 332.5c11.671-.167 23.338 0 35 .5a436.277 436.277 0 0 1 40 11l17 1a327.974 327.974 0 0 1 15 15.5 2868.661 2868.661 0 0 0-116-15.5 102.264 102.264 0 0 1-11-8c6.583-2.215 13.249-3.715 20-4.5zM421.5 339.5a8.43 8.43 0 0 1 4 .5 448.688 448.688 0 0 1 20 14.5c-1.588 3.631-4.254 6.131-8 7.5-11.028 3.817-21.695 3.151-32-2l-3.5-3.5c-.781-1.444-.614-2.777.5-4a275.705 275.705 0 0 0 19-13z"/><path style="opacity:1" fill="#fcfcfc" d="M123.5 348.5c28.672.613 55.005 8.779 79 24.5-10.051 5.063-14.551 13.23-13.5 24.5-19.266-12.924-39.766-15.424-61.5-7.5-9.56 1.924-17.726-.576-24.5-7.5-4.591-10.122-2.758-18.956 5.5-26.5 4.545-3.606 9.545-6.106 15-7.5z"/><path style="opacity:1" fill="#fdfdfd" d="M231.5 395.5c53.571 42.812 111.237 79.646 173 110.5a2191.683 2191.683 0 0 0 213 86 425.51 425.51 0 0 1 31.5 9.5 5327.46 5327.46 0 0 1 14.5 78 4052.741 4052.741 0 0 1-193-80.5c-79.38-39.83-152.38-88.83-219-147a509.327 509.327 0 0 0-39-37c10.568-2.401 16.901-8.901 19-19.5z"/><path style="opacity:1" fill="#fbfbfb" d="M369.5 549.5a1270.33 1270.33 0 0 0 102 58 286.735 286.735 0 0 1-28 16 1442.054 1442.054 0 0 1-102-49.5c18.269 25.936 41.269 46.602 69 62-33.649-5.489-65.316-16.656-95-33.5-23.411 21.216-49.411 38.716-78 52.5-5.239 2.304-10.572 3.97-16 5a3826.03 3826.03 0 0 1 148-110.5z"/><path style="opacity:1" fill="#8b898a" d="M90.5 640.5c1.548.321 2.215 1.321 2 3-.901-.79-1.568-1.79-2-3z"/></svg>

<?xml version="1.0" encoding="UTF-8"?>
<!DOCTYPE svg PUBLIC "-//W3C//DTD SVG 1.1//EN" "http://www.w3.org/Graphics/SVG/1.1/DTD/svg11.dtd">
<svg xmlns="http://www.w3.org/2000/svg" version="1.1" width="850px" height="850px" style="shape-rendering:geometricPrecision; text-rendering:geometricPrecision; image-rendering:optimizeQuality; fill-rule:evenodd; clip-rule:evenodd" xmlns:xlink="http://www.w3.org/1999/xlink">
<g><path style="opacity:1" fill="#c8c7c7" d="M 837.5,17.5 C 837.5,15.5 837.5,13.5 837.5,11.5C 562.167,11.5 286.833,11.5 11.5,11.5C 11.5,12.8333 11.5,14.1667 11.5,15.5C 10.5489,14.0813 10.2155,12.4147 10.5,10.5C 286.5,10.5 562.5,10.5 838.5,10.5C 838.802,13.0593 838.468,15.3926 837.5,17.5 Z"/></g>
<g><path style="opacity:1" fill="#262224" d="M 837.5,17.5 C 827.046,173.188 816.213,328.854 805,484.5C 790.672,622.693 723.505,725.86 603.5,794C 494.335,848.871 383.335,852.871 270.5,806C 193.185,771.518 133.852,717.351 92.5,643.5C 92.7148,641.821 92.0481,640.821 90.5,640.5C 67.0308,596.637 52.1974,549.971 46,500.5C 33.6471,338.893 22.1471,177.227 11.5,15.5C 11.5,14.1667 11.5,12.8333 11.5,11.5C 286.833,11.5 562.167,11.5 837.5,11.5C 837.5,13.5 837.5,15.5 837.5,17.5 Z"/></g>
<g><path style="opacity:1" fill="#124262" d="M 818.5,34.5 C 818.5,32.8333 818.5,31.1667 818.5,29.5C 555.833,29.5 293.167,29.5 30.5,29.5C 30.5,30.5 30.5,31.5 30.5,32.5C 29.5655,31.4324 29.2322,30.099 29.5,28.5C 292.833,28.5 556.167,28.5 819.5,28.5C 819.795,30.7354 819.461,32.7354 818.5,34.5 Z"/></g>
<g><path style="opacity:1" fill="#0065a5" d="M 818.5,34.5 C 808.91,170.487 799.41,306.487 790,442.5C 788.903,509.22 773.237,572.22 743,631.5C 683.58,734.854 594.747,796.688 476.5,817C 348.443,831.658 240.61,792.158 153,698.5C 101.469,638.404 71.4685,568.737 63,489.5C 51.9768,337.175 41.1435,184.842 30.5,32.5C 30.5,31.5 30.5,30.5 30.5,29.5C 293.167,29.5 555.833,29.5 818.5,29.5C 818.5,31.1667 818.5,32.8333 818.5,34.5 Z"/></g>
<g><path style="opacity:1" fill="#252223" d="M 370.5,104.5 C 390.298,102.99 407.965,108.323 423.5,120.5C 440.742,106.346 460.409,101.513 482.5,106C 497.257,109.356 511.924,113.023 526.5,117C 532.167,117.333 537.833,117.667 543.5,118C 545.333,118.5 546.5,119.667 547,121.5C 547.333,126.833 547.667,132.167 548,137.5C 554.755,141.128 561.588,144.628 568.5,148C 570.049,149.214 571.215,150.714 572,152.5C 572.993,223.915 572.66,295.248 571,366.5C 569.406,368.297 567.406,369.297 565,369.5C 527.305,363.091 489.471,357.758 451.5,353.5C 449.39,361.774 444.057,366.941 435.5,369C 424.455,371.665 413.788,370.665 403.5,366C 398.652,363.127 395.652,358.96 394.5,353.5C 356.752,357.107 319.252,362.44 282,369.5C 278.726,369.699 276.393,368.366 275,365.5C 274.333,294.167 274.333,222.833 275,151.5C 275.465,150.069 276.299,148.903 277.5,148C 284.045,144.56 290.712,141.394 297.5,138.5C 298.33,132.862 298.83,127.196 299,121.5C 300.167,120.333 301.333,119.167 302.5,118C 308.167,117.667 313.833,117.333 319.5,117C 336.45,112.012 353.45,107.845 370.5,104.5 Z"/></g>
<g><path style="opacity:1" fill="#fdfdfd" d="M 372.5,111.5 C 387.327,110.612 400.994,114.112 413.5,122C 415.667,124.167 417.833,126.333 420,128.5C 420.5,195.833 420.667,263.166 420.5,330.5C 403.1,326.176 385.434,324.342 367.5,325C 350.436,327.355 333.769,331.355 317.5,337C 313.514,337.499 309.514,337.666 305.5,337.5C 305.5,266.5 305.5,195.5 305.5,124.5C 310.511,124.666 315.511,124.499 320.5,124C 337.813,119.17 355.146,115.004 372.5,111.5 Z"/></g>
<g><path style="opacity:1" fill="#fdfdfd" d="M 458.5,111.5 C 481.06,112.76 503.06,116.926 524.5,124C 529.823,124.499 535.156,124.666 540.5,124.5C 540.5,195.5 540.5,266.5 540.5,337.5C 536.486,337.666 532.486,337.499 528.5,337C 518.126,334.156 507.793,331.156 497.5,328C 473.37,323.734 449.37,324.567 425.5,330.5C 425.333,263.166 425.5,195.833 426,128.5C 435.024,119.239 445.858,113.572 458.5,111.5 Z"/></g>
<g><path style="opacity:1" fill="#fefefe" d="M 297.5,146.5 C 298.167,210.167 298.833,273.833 299.5,337.5C 294.263,344.243 288.429,350.577 282,356.5C 281.167,288.831 281.333,221.164 282.5,153.5C 287.615,151.354 292.615,149.02 297.5,146.5 Z"/></g>
<g><path style="opacity:1" fill="#908e8f" d="M 297.5,146.5 C 297.56,145.957 297.893,145.624 298.5,145.5C 299.5,209.497 299.833,273.497 299.5,337.5C 298.833,273.833 298.167,210.167 297.5,146.5 Z"/></g>
<g><path style="opacity:1" fill="#fefefe" d="M 564.5,154.5 C 564.832,221.669 564.499,288.669 563.5,355.5C 558.536,350.035 553.37,344.702 548,339.5C 547.5,275.168 547.333,210.834 547.5,146.5C 553.587,148.378 559.254,151.045 564.5,154.5 Z"/></g>
<g><path style="opacity:1" fill="#c7c6c6" d="M 564.5,154.5 C 565.832,221.668 565.832,289.001 564.5,356.5C 563.893,356.376 563.56,356.043 563.5,355.5C 564.499,288.669 564.832,221.669 564.5,154.5 Z"/></g>
<g><path style="opacity:1" fill="#252224" d="M 752.5,315.5 C 754.792,315.244 756.959,315.577 759,316.5C 759.667,319.167 759.667,321.833 759,324.5C 747.936,363.168 727.436,395.668 697.5,422C 694.167,422.167 690.833,422.333 687.5,422.5C 672.736,421.927 658.069,420.761 643.5,419C 656.595,426.047 670.261,431.714 684.5,436C 687.349,438.559 688.183,441.726 687,445.5C 644.271,486.242 599.771,524.742 553.5,561C 565.309,566.049 577.309,570.716 589.5,575C 610.863,581.955 632.196,588.788 653.5,595.5C 654.531,596.7 655.365,598.034 656,599.5C 660.815,625.206 665.815,650.873 671,676.5C 672.833,685.333 669.333,688.833 660.5,687C 617.247,669.138 573.914,651.471 530.5,634C 513.566,626.69 496.733,619.19 480,611.5C 468.564,619.301 456.397,625.634 443.5,630.5C 419.49,621.498 396.157,610.832 373.5,598.5C 373.167,598.667 372.833,598.833 372.5,599C 386.423,611.962 401.756,622.962 418.5,632C 429.315,642.262 427.315,646.596 412.5,645C 378.8,638.711 346.8,627.544 316.5,611.5C 281.673,642.422 241.673,664.255 196.5,677C 193.833,677.667 191.167,677.667 188.5,677C 217.472,653.849 246.805,631.183 276.5,609C 305.5,588 334.5,567 363.5,546C 307.44,510.357 255.94,468.857 209,421.5C 199.954,433.091 190.787,444.591 181.5,456C 169.001,464.945 159.501,462.445 153,448.5C 151.595,444.928 151.262,441.261 152,437.5C 153.497,433.835 155.497,430.502 158,427.5C 165.408,421.214 172.908,415.047 180.5,409C 181.831,407.341 183.165,405.674 184.5,404C 169.554,392.847 153.221,390.18 135.5,396C 123.582,399.05 112.249,397.717 101.5,392C 93.9277,384.719 91.4277,375.886 94,365.5C 98.9658,352.204 108.466,344.37 122.5,342C 154.097,341.754 182.931,350.588 209,368.5C 218.223,358.386 226.223,347.386 233,335.5C 237.795,328.943 244.128,324.943 252,323.5C 266.663,327.491 271.996,336.824 268,351.5C 262.419,360.416 255.419,368.083 247,374.5C 243.702,378.8 240.035,382.8 236,386.5C 235.333,387.167 235.333,387.833 236,388.5C 293.183,435.205 355.35,474.538 422.5,506.5C 527.904,435.55 637.904,371.883 752.5,315.5 Z"/></g>
<g><path style="opacity:1" fill="#fdfdfd" d="M 748.5,325.5 C 749.376,325.369 750.043,325.702 750.5,326.5C 739.606,360.306 721.606,389.639 696.5,414.5C 683.487,415.178 670.487,414.678 657.5,413C 643.303,411.251 629.303,408.918 615.5,406C 627.435,418.31 641.435,427.643 657.5,434C 664.8,436.933 672.133,439.766 679.5,442.5C 636.813,482.695 592.48,520.861 546.5,557C 544.833,557.667 543.167,557.667 541.5,557C 503.626,542.431 466.293,526.598 429.5,509.5C 531.485,441.318 637.818,379.985 748.5,325.5 Z"/></g>
<g><path style="opacity:1" fill="#fbfbfb" d="M 248.5,331.5 C 262.048,333.263 265.548,340.263 259,352.5C 247.304,363.862 235.97,375.529 225,387.5C 226.249,399.573 220.916,406.24 209,407.5C 200.333,419.5 191.667,431.5 183,443.5C 179.799,447.036 176.299,450.203 172.5,453C 160.884,452.646 157.051,446.813 161,435.5C 171.189,426.734 181.189,417.734 191,408.5C 193.182,404.99 195.349,401.49 197.5,398C 195.005,391.055 196.672,385.389 202.5,381C 205.659,380.141 208.659,378.975 211.5,377.5C 222.684,365.151 232.517,351.818 241,337.5C 243.478,335.361 245.978,333.361 248.5,331.5 Z"/></g>
<g><path style="opacity:1" fill="#fafafa" d="M 358.5,332.5 C 370.838,332.333 383.171,332.5 395.5,333C 402.269,333.82 408.935,335.154 415.5,337C 411.5,339.667 407.5,342.333 403.5,345C 365.017,349.275 326.684,354.275 288.5,360C 293.5,355 298.5,350 303.5,345C 308.5,344.667 313.5,344.333 318.5,344C 331.867,339.816 345.201,335.983 358.5,332.5 Z"/></g>
<g><path style="opacity:1" fill="#f9f9f9" d="M 451.5,332.5 C 463.171,332.333 474.838,332.5 486.5,333C 500.023,336.037 513.357,339.703 526.5,344C 532.167,344.333 537.833,344.667 543.5,345C 548.682,350.015 553.682,355.181 558.5,360.5C 520.24,354.585 481.574,349.418 442.5,345C 438.656,342.578 434.99,339.911 431.5,337C 438.083,334.785 444.749,333.285 451.5,332.5 Z"/></g>
<g><path style="opacity:1" fill="#f9f9f9" d="M 421.5,339.5 C 422.873,339.343 424.207,339.51 425.5,340C 432.33,344.672 438.997,349.505 445.5,354.5C 443.912,358.131 441.246,360.631 437.5,362C 426.472,365.817 415.805,365.151 405.5,360C 404.333,358.833 403.167,357.667 402,356.5C 401.219,355.056 401.386,353.723 402.5,352.5C 409.073,348.391 415.406,344.058 421.5,339.5 Z"/></g>
<g><path style="opacity:1" fill="#fcfcfc" d="M 123.5,348.5 C 152.172,349.113 178.505,357.279 202.5,373C 192.449,378.063 187.949,386.23 189,397.5C 169.734,384.576 149.234,382.076 127.5,390C 117.94,391.924 109.774,389.424 103,382.5C 98.409,372.378 100.242,363.544 108.5,356C 113.045,352.394 118.045,349.894 123.5,348.5 Z"/></g>
<g><path style="opacity:1" fill="#fdfdfd" d="M 231.5,395.5 C 285.071,438.312 342.737,475.146 404.5,506C 473.98,538.383 544.98,567.05 617.5,592C 628.204,594.785 638.704,597.952 649,601.5C 654.031,627.485 658.864,653.485 663.5,679.5C 598.51,654.342 534.177,627.508 470.5,599C 391.12,559.17 318.12,510.17 251.5,452C 239.105,438.936 226.105,426.603 212.5,415C 223.068,412.599 229.401,406.099 231.5,395.5 Z"/></g>
<g><path style="opacity:1" fill="#fbfbfb" d="M 369.5,549.5 C 402.479,570.332 436.479,589.665 471.5,607.5C 462.528,613.324 453.194,618.657 443.5,623.5C 408.682,608.255 374.682,591.755 341.5,574C 359.769,599.936 382.769,620.602 410.5,636C 376.851,630.511 345.184,619.344 315.5,602.5C 292.089,623.716 266.089,641.216 237.5,655C 232.261,657.304 226.928,658.97 221.5,660C 270.008,621.928 319.341,585.095 369.5,549.5 Z"/></g>
<g><path style="opacity:1" fill="#8b898a" d="M 90.5,640.5 C 92.0481,640.821 92.7148,641.821 92.5,643.5C 91.5987,642.71 90.9321,641.71 90.5,640.5 Z"/></g>
</svg>
